dist/img/whatsapp_icon.svg

<svg width="40" height="41" viewBox="0 0 40 41" fill="none" xmlns="http://www.w3.org/2000/svg">
<path d="M21.0062 7.8615C14.6135 7.8615 9.4126 13.0624 9.4126 19.4551C9.4126 21.6825 10.0457 23.8456 11.2432 25.7104L11.531 26.1586L10.4034 30.1637L14.5471 29.097L14.9744 29.358C16.7862 30.464 18.872 31.0487 21.0062 31.0487C27.3989 31.0487 32.5997 25.8478 32.5997 19.4551C32.5997 13.0624 27.3989 7.8615 21.0062 7.8615ZM28.1155 23.0183L27.9708 23.694C27.8077 24.4562 27.355 25.1305 26.6982 25.5506C25.869 26.0811 24.7942 26.3415 23.428 25.9552C19.1883 24.7563 16.7906 21.9493 15.5041 20.1949C14.2175 18.4405 13.7205 16.6861 14.0421 15.2534C14.2578 14.2925 14.9601 13.5553 15.3993 13.1738C15.6144 12.9869 15.8936 12.8918 16.178 12.9074L17.084 12.9568C17.2624 12.9665 17.4198 13.0767 17.4901 13.241L18.8098 16.3288C18.8803 16.4938 18.8506 16.6845 18.7333 16.8202L17.5845 18.1491C17.4914 18.2568 17.4751 18.4104 17.5408 18.5368C19.0537 21.4511 21.8111 22.606 22.6343 22.8953C22.7745 22.9446 22.93 22.898 23.0208 22.7802L24.2229 21.2219C24.3565 21.0486 24.5922 20.9907 24.791 21.0824L27.8529 22.4937C28.0524 22.5857 28.1615 22.8036 28.1155 23.0183Z" fill="#26AA1A"/>
<path d="M20 0.5C31.0457 0.5 40 9.4543 40 20.5C40 31.5457 31.0457 40.5 20 40.5C8.9543 40.5 0 31.5457 0 20.5C0 9.4543 8.9543 0.5 20 0.5ZM21.0062 33.4171C28.7049 33.4171 34.9682 27.1538 34.9682 19.4551C34.9682 11.7564 28.7049 5.49307 21.0062 5.49307C13.3075 5.49307 7.04421 11.7564 7.04421 19.4551C7.04421 21.9554 7.70719 24.3894 8.9664 26.5286L7.00825 33.4833L14.1804 31.6371C16.2584 32.8031 18.6074 33.4171 21.0062 33.4171Z" fill="#26AA1A"/>
</svg>

<svg width="40" height="41" fill="none" xmlns="http://www.w3.org/2000/svg"><path d="M21.006 7.862c-6.393 0-11.593 5.2-11.593 11.593 0 2.228.633 4.39 1.83 6.255l.288.449-1.128 4.005 4.144-1.067.427.261a11.57 11.57 0 006.032 1.69c6.393 0 11.594-5.2 11.594-11.593S27.399 7.862 21.006 7.862zm7.11 15.156l-.145.676a2.924 2.924 0 01-1.273 1.857c-.829.53-1.904.79-3.27.404-4.24-1.199-6.637-4.006-7.924-5.76-1.287-1.755-1.784-3.509-1.462-4.942.216-.96.918-1.698 1.357-2.08.215-.186.495-.281.779-.266l.906.05a.47.47 0 01.406.284l1.32 3.088a.47.47 0 01-.077.491l-1.149 1.33a.347.347 0 00-.043.387c1.513 2.914 4.27 4.069 5.093 4.358.14.05.296.003.387-.115l1.202-1.558a.47.47 0 01.568-.14l3.062 1.412c.2.092.308.31.262.524z" fill="#26AA1A"/><path d="M20 .5c11.046 0 20 8.954 20 20s-8.954 20-20 20-20-8.954-20-20S8.954.5 20 .5zm1.006 32.917c7.699 0 13.962-6.263 13.962-13.962S28.705 5.493 21.006 5.493 7.044 11.756 7.044 19.455c0 2.5.663 4.934 1.922 7.074l-1.958 6.954 7.172-1.846a13.944 13.944 0 006.826 1.78z" fill="#26AA1A"/></svg>
